_app/img/ideal.svg

<svg xmlns:dc="http://purl.org/dc/elements/1.1/" xmlns:cc="http://creativecommons.org/ns#" xmlns:rdf="http://www.w3.org/1999/02/22-rdf-syntax-ns#" xmlns:svg="http://www.w3.org/2000/svg" xmlns="http://www.w3.org/2000/svg" xmlns:sodipodi="http://sodipodi.sourceforge.net/DTD/sodipodi-0.dtd" xmlns:inkscape="http://www.inkscape.org/namespaces/inkscape" viewBox="0 0 42 52.50000125" version="1.1" x="0px" y="0px"><g transform="translate(0,-1010.3622)"><path style="color:#000000;font-style:normal;font-variant:normal;font-weight:normal;font-stretch:normal;font-size:medium;line-height:normal;font-family:sans-serif;text-indent:0;text-align:start;text-decoration:none;text-decoration-line:none;text-decoration-style:solid;text-decoration-color:#000000;letter-spacing:normal;word-spacing:normal;text-transform:none;direction:ltr;block-progression:tb;writing-mode:lr-tb;baseline-shift:baseline;text-anchor:start;white-space:normal;clip-rule:nonzero;display:inline;overflow:visible;visibility:visible;opacity:1;isolation:auto;mix-blend-mode:normal;color-interpolation:sRGB;color-interpolation-filters:linearRGB;solid-color:#000000;solid-opacity:1;fill:#000000;fill-opacity:1;fill-rule:nonzero;stroke:none;stroke-width:1;stroke-linecap:round;stroke-linejoin:round;stroke-miterlimit:4;stroke-dasharray:none;stroke-dashoffset:0;stroke-opacity:1;color-rendering:auto;image-rendering:auto;shape-rendering:auto;text-rendering:auto;enable-background:accumulate" d="M 21 0 C 9.407943 0 0 9.408 0 21 C 0 32.5921 9.407943 42 21 42 C 32.592057 42 42 32.5921 42 21 C 42 9.408 32.592057 0 21 0 z M 21 1 C 32.051617 1 41 9.9484 41 21 C 41 32.0516 32.051617 41 21 41 C 9.948383 41 1 32.0516 1 21 C 1 9.9484 9.948383 1 21 1 z M 20 6.0625 C 18.346641 6.0625 17 7.4089 17 9.0625 L 17 12.757812 C 15.165098 14.314812 14 16.7832 14 19.5625 L 14 35.5 A 0.50005 0.50005 0 0 0 14.5 36 L 28.5 36 A 0.50005 0.50005 0 0 0 29 35.5 L 29 19.5625 C 29 16.7835 27.834485 14.315013 26 12.757812 L 26 11.095703 A 0.50005 0.50005 0 0 0 26 11.0625 L 26 9.0625 C 26 7.409 24.653359 6.0625 23 6.0625 L 20 6.0625 z M 20 7.0625 L 23 7.0625 C 24.034536 7.0625 24.859447 7.8227656 24.976562 8.8222656 C 24.447191 8.3542656 23.759975 8.0625 23 8.0625 L 20 8.0625 C 19.240025 8.0625 18.55281 8.3542656 18.023438 8.8222656 C 18.140552 7.8227656 18.965464 7.0625 20 7.0625 z M 20 9.0625 L 23 9.0625 C 24.116659 9.0625 25 9.9457 25 11.0625 L 25 20.646484 C 24.517793 20.100884 23.920545 19.656366 23.220703 19.384766 C 22.629242 19.155266 22.016685 19.053553 21.416016 19.064453 C 20.10881 19.088453 18.862947 19.655947 18 20.623047 L 18 11.095703 A 0.50005 0.50005 0 0 0 18 11.0625 C 18 9.9458 18.883341 9.0625 20 9.0625 z M 17 14.152344 L 17 22.0625 C 17 23.7158 18.346641 25.0625 20 25.0625 L 23 25.0625 C 24.653359 25.0625 26 23.7158 26 22.0625 L 26 14.15625 C 27.223427 15.51225 28 17.4215 28 19.5625 L 28 35 L 15 35 L 15 19.5625 C 15 17.4205 15.775649 15.508644 17 14.152344 z M 21.433594 20.060547 C 21.907308 20.050547 22.390841 20.134506 22.859375 20.316406 C 23.809893 20.685206 24.550278 21.422044 24.90625 22.339844 A 0.50005 0.50005 0 0 0 24.960938 22.449219 C 24.783839 23.375919 23.983787 24.0625 23 24.0625 L 20 24.0625 C 19.002129 24.0625 18.196527 23.355103 18.035156 22.408203 A 0.50005 0.50005 0 0 0 18.123047 22.265625 C 18.681447 20.919625 20.012451 20.085847 21.433594 20.060547 z " transform="translate(0,1010.3622)"/></g><text x="0" y="57.000001" fill="#000000" font-size="5px" font-weight="bold" font-family="'Helvetica Neue', Helvetica, Arial-Unicode, Arial, Sans-serif">Created by Chameleon Design</text><text x="0" y="62.000001" fill="#000000" font-size="5px" font-weight="bold" font-family="'Helvetica Neue', Helvetica, Arial-Unicode, Arial, Sans-serif">from the Noun Project</text></svg>

<svg xmlns="http://www.w3.org/2000/svg" viewBox="0 0 42 52.5"><path style="line-height:normal;text-indent:0;text-align:start;text-decoration-line:none;text-decoration-style:solid;text-decoration-color:#000;text-transform:none;block-progression:tb;white-space:normal;isolation:auto;mix-blend-mode:normal;solid-color:#000;solid-opacity:1" d="M21 0C9.408 0 0 9.408 0 21s9.408 21 21 21 21-9.408 21-21S32.592 0 21 0zm0 1c11.052 0 20 8.948 20 20s-8.948 20-20 20S1 32.052 1 21 9.948 1 21 1zm-1 5.063c-1.653 0-3 1.346-3 3v3.695c-1.835 1.557-3 4.025-3 6.805V35.5a.5.5 0 0 0 .5.5h14a.5.5 0 0 0 .5-.5V19.562c0-2.779-1.166-5.247-3-6.804v-1.662a.5.5 0 0 0 0-.034v-2c0-1.653-1.347-3-3-3h-3zm0 1h3c1.035 0 1.86.76 1.977 1.76A2.973 2.973 0 0 0 23 8.062h-3a2.97 2.97 0 0 0-1.977.76c.118-1 .942-1.76 1.977-1.76zm0 2h3c1.117 0 2 .883 2 2v9.583a4.604 4.604 0 0 0-1.78-1.261 4.743 4.743 0 0 0-1.804-.32A4.704 4.704 0 0 0 18 20.622v-9.527a.5.5 0 0 0 0-.034c0-1.116.883-2 2-2zm-3 5.09v7.91c0 1.653 1.347 3 3 3h3c1.653 0 3-1.347 3-3v-7.907c1.223 1.356 2 3.266 2 5.406V35H15V19.562c0-2.142.776-4.053 2-5.41zm4.434 5.908a3.72 3.72 0 0 1 1.425.255 3.567 3.567 0 0 1 2.047 2.024.5.5 0 0 0 .055.11A1.98 1.98 0 0 1 23 24.062h-3a1.978 1.978 0 0 1-1.965-1.655.5.5 0 0 0 .088-.142c.558-1.346 1.89-2.18 3.31-2.205z" color="#000" font-weight="400" font-family="sans-serif" overflow="visible"/><text y="57" font-size="5" font-weight="bold" font-family="'Helvetica Neue', Helvetica, Arial-Unicode, Arial, Sans-serif">Created by Chameleon Design</text><text y="62" font-size="5" font-weight="bold" font-family="'Helvetica Neue', Helvetica, Arial-Unicode, Arial, Sans-serif">from the Noun Project</text></svg>
